assets/gi/gi-abstract-030.svg

<svg xmlns="http://www.w3.org/2000/svg" width="100%" height="100%" viewBox="-35.84 -35.84 583.68 583.68"><path d="m210.287,20.9997c-95.5558,18.4904-170.817,93.7559-189.287,189.3473h163.1009c25.3227,0 45.638,20.1723 45.638,45.5032s-20.3153,45.8027-45.638,45.8027h-163.1009c18.4701,95.5914 93.7312,170.8569 189.287,189.3473v-163.1531c0-25.3307 20.3153-45.6529 45.6384-45.6529s45.7875,20.3222 45.7875,45.6529v163.1531c95.5553-18.4904 170.8174-93.7559 189.2871-189.3473h-162.9511c-25.3227,0-45.7879-20.4717-45.7879-45.8027s20.4652-45.5032 45.7879-45.5032h162.9511c-18.4696-95.5914-93.7312-170.8569-189.2866-189.3473v162.8537c0,25.3307-20.4652,45.8026-45.7879,45.8026s-45.6384-20.4719-45.6384-45.8026v-162.8537z"/></svg>

<svg xmlns="http://www.w3.org/2000/svg" width="100%" height="100%" viewBox="-35.84 -35.84 583.68 583.68"><path d="M210.287 21C114.731 39.49 39.47 114.756 21 210.347h163.1c25.324 0 45.639 20.172 45.639 45.503s-20.315 45.803-45.638 45.803H21C39.47 397.244 114.731 472.51 210.287 491V327.847c0-25.33 20.315-45.653 45.638-45.653s45.788 20.322 45.788 45.653V491C397.268 472.51 472.53 397.244 491 301.653H328.049c-25.323 0-45.788-20.472-45.788-45.803s20.465-45.503 45.788-45.503H491C472.53 114.756 397.269 39.49 301.713 21v162.853c0 25.331-20.465 45.803-45.788 45.803s-45.638-20.472-45.638-45.803V21z"/></svg>
